apps/cave/public/assets/sidebar/gemswap.svg

<svg width="18" height="18" viewBox="0 0 18 18" fill="none" xmlns="http://www.w3.org/2000/svg">
<path d="M2.17494 0.0001043C1.91705 0.00388356 1.67122 0.109887 1.49145 0.294821C1.31168 0.479756 1.21269 0.728494 1.21622 0.98638V4.39179C1.21624 4.64983 1.31876 4.89729 1.50122 5.07975C1.68368 5.26221 1.93115 5.36473 2.18919 5.36476H5.59459C5.72353 5.36658 5.85153 5.34276 5.97118 5.29468C6.09082 5.24661 6.19972 5.17523 6.29154 5.0847C6.38336 4.99417 6.45627 4.88629 6.50603 4.76734C6.5558 4.64839 6.58142 4.52073 6.58142 4.39179C6.58142 4.26284 6.5558 4.13518 6.50603 4.01623C6.45627 3.89728 6.38336 3.7894 6.29154 3.69887C6.19972 3.60834 6.09082 3.53696 5.97118 3.48889C5.85153 3.44081 5.72353 3.41699 5.59459 3.41881H4.71949C5.90606 2.5085 7.38308 1.95935 9 1.95935C10.6435 1.95935 12.0528 2.50562 13.2653 3.45492C13.3654 3.53835 13.4812 3.60084 13.6059 3.63866C13.7306 3.67649 13.8616 3.68889 13.9912 3.67512C14.1207 3.66136 14.2462 3.62171 14.3602 3.55854C14.4742 3.49536 14.5743 3.40994 14.6546 3.30734C14.7349 3.20474 14.7938 3.08705 14.8278 2.96126C14.8618 2.83547 14.8701 2.70414 14.8524 2.57505C14.8347 2.44596 14.7912 2.32175 14.7245 2.20979C14.6579 2.09782 14.5694 2.00038 14.4644 1.92325C12.9516 0.738813 11.0859 0.0134067 9 0.0134067C6.77611 0.0134067 4.7354 0.826341 3.16216 2.16839V0.98638C3.16394 0.856287 3.13961 0.727159 3.09062 0.606632C3.04163 0.486106 2.96896 0.376628 2.87692 0.284675C2.78487 0.192721 2.67533 0.120159 2.55475 0.0712807C2.43418 0.0224021 2.30503 -0.0018005 2.17494 0.0001043ZM16.2973 4.39179C16.0392 4.39179 15.7918 4.49429 15.6093 4.67676C15.4268 4.85923 15.3243 5.10671 15.3243 5.36476C15.3243 5.62281 15.4268 5.87029 15.6093 6.05275C15.7918 6.23522 16.0392 6.33773 16.2973 6.33773C16.5553 6.33773 16.8028 6.23522 16.9853 6.05275C17.1678 5.87029 17.2703 5.62281 17.2703 5.36476C17.2703 5.10671 17.1678 4.85923 16.9853 4.67676C16.8028 4.49429 16.5553 4.39179 16.2973 4.39179ZM0.972973 7.79719C0.714925 7.79719 0.467445 7.8997 0.284977 8.08217C0.102509 8.26464 0 8.51211 0 8.77016C0 9.02821 0.102509 9.27569 0.284977 9.45816C0.467445 9.64063 0.714925 9.74314 0.972973 9.74314C1.23102 9.74314 1.4785 9.64063 1.66097 9.45816C1.84344 9.27569 1.94595 9.02821 1.94595 8.77016C1.94595 8.51211 1.84344 8.26464 1.66097 8.08217C1.4785 7.8997 1.23102 7.79719 0.972973 7.79719ZM17.027 7.79719C16.769 7.79719 16.5215 7.8997 16.339 8.08217C16.1566 8.26464 16.0541 8.51211 16.0541 8.77016C16.0541 9.02821 16.1566 9.27569 16.339 9.45816C16.5215 9.64063 16.769 9.74314 17.027 9.74314C17.2851 9.74314 17.5326 9.64063 17.715 9.45816C17.8975 9.27569 18 9.02821 18 8.77016C18 8.51211 17.8975 8.26464 17.715 8.08217C17.5326 7.8997 17.2851 7.79719 17.027 7.79719ZM1.7027 11.2026C1.44465 11.2026 1.19717 11.3051 1.01471 11.4876C0.832239 11.67 0.72973 11.9175 0.72973 12.1756C0.72973 12.4336 0.832239 12.6811 1.01471 12.8636C1.19717 13.046 1.44465 13.1485 1.7027 13.1485C1.96075 13.1485 2.20823 13.046 2.3907 12.8636C2.57317 12.6811 2.67568 12.4336 2.67568 12.1756C2.67568 11.9175 2.57317 11.67 2.3907 11.4876C2.20823 11.3051 1.96075 11.2026 1.7027 11.2026ZM12.4054 12.1756C12.2765 12.1737 12.1485 12.1976 12.0288 12.2456C11.9092 12.2937 11.8003 12.3651 11.7085 12.4556C11.6166 12.5462 11.5437 12.654 11.494 12.773C11.4442 12.8919 11.4186 13.0196 11.4186 13.1485C11.4186 13.2775 11.4442 13.4051 11.494 13.5241C11.5437 13.643 11.6166 13.7509 11.7085 13.8415C11.8003 13.932 11.9092 14.0034 12.0288 14.0514C12.1485 14.0995 12.2765 14.1233 12.4054 14.1215H13.2805C12.0939 15.0318 10.6169 15.581 9 15.581C7.35648 15.581 5.94718 15.0347 4.73469 14.0854C4.63461 14.002 4.51879 13.9395 4.3941 13.9017C4.26941 13.8638 4.13839 13.8514 4.00882 13.8652C3.87925 13.879 3.75377 13.9186 3.63981 13.9818C3.52585 14.045 3.42574 14.1304 3.34542 14.233C3.26509 14.3356 3.2062 14.4533 3.17221 14.5791C3.13823 14.7049 3.12986 14.8362 3.1476 14.9653C3.16533 15.0944 3.20882 15.2186 3.27546 15.3305C3.34211 15.4425 3.43056 15.5399 3.53558 15.6171C5.04839 16.8015 6.91412 17.5269 9 17.5269C11.2239 17.5269 13.2646 16.714 14.8378 15.3719V16.5539C14.836 16.6829 14.8598 16.8109 14.9079 16.9305C14.956 17.0502 15.0274 17.1591 15.1179 17.2509C15.2084 17.3427 15.3163 17.4156 15.4353 17.4654C15.5542 17.5152 15.6819 17.5408 15.8108 17.5408C15.9398 17.5408 16.0674 17.5152 16.1864 17.4654C16.3053 17.4156 16.4132 17.3427 16.5037 17.2509C16.5943 17.1591 16.6656 17.0502 16.7137 16.9305C16.7618 16.8109 16.7856 16.6829 16.7838 16.5539V13.1485C16.7838 12.8905 16.6812 12.643 16.4988 12.4606C16.3163 12.2781 16.0689 12.1756 15.8108 12.1756H12.4054Z" fill="#5F7A99"/>
</svg>

<svg xmlns="http://www.w3.org/2000/svg" fill="none" viewBox="0 -2 20 20">
  <path fill="#5F7A99" d="M2.175 0a.973.973 0 0 0-.959.986v3.406a.973.973 0 0 0 .973.973h3.406a.973.973 0 1 0 0-1.946h-.876A7 7 0 0 1 9 1.959c1.643 0 3.053.547 4.265 1.496a.973.973 0 1 0 1.2-1.532C12.951.74 11.084.013 9 .013a8.972 8.972 0 0 0-5.838 2.155V.986A.973.973 0 0 0 2.175 0Zm14.122 4.392a.973.973 0 1 0 0 1.946.973.973 0 0 0 0-1.946ZM.973 7.797a.973.973 0 1 0 0 1.946.973.973 0 0 0 0-1.946Zm16.054 0a.973.973 0 1 0 0 1.946.973.973 0 0 0 0-1.946ZM1.703 11.203a.973.973 0 1 0 0 1.945.973.973 0 0 0 0-1.945Zm10.702.973a.973.973 0 1 0 0 1.945h.876A7 7 0 0 1 9 15.581c-1.644 0-3.053-.546-4.265-1.496a.973.973 0 1 0-1.2 1.532c1.513 1.184 3.38 1.91 5.465 1.91a8.972 8.972 0 0 0 5.838-2.155v1.182a.973.973 0 1 0 1.946 0v-3.405a.973.973 0 0 0-.973-.973h-3.406Z"/>
</svg>
